svgs/sharp-regular/money-bills-simple.svg

<svg xmlns="http://www.w3.org/2000/svg" viewBox="0 0 640 512"><!--! Font Awesome Pro 6.6.0 by @fontawesome - https://fontawesome.com License - https://fontawesome.com/license (Commercial License) Copyright 2024 Fonticons, Inc. --><path d="M592 80l0 256-448 0 0-256 448 0zM144 32L96 32l0 48 0 256 0 48 48 0 448 0 48 0 0-48 0-256 0-48-48 0L144 32zM448 208a80 80 0 1 0 -160 0 80 80 0 1 0 160 0zM48 120l0-24L0 96l0 24L0 456l0 24 24 0 496 0 24 0 0-48-24 0L48 432l0-312z"/></svg>

<svg xmlns="http://www.w3.org/2000/svg" viewBox="0 0 640 512"><!--! Font Awesome Pro 6.4.0 by @fontawesome - https://fontawesome.com License - https://fontawesome.com/license (Commercial License) Copyright 2023 Fonticons, Inc. --><path d="M592 80V336H144V80H592zM144 32H96V80 336v48h48H592h48V336 80 32H592 144zM448 208a80 80 0 1 0 -160 0 80 80 0 1 0 160 0zM48 120V96H0v24V456v24H24 520h24V432H520 48V120z"/></svg>
